svg/u1f3c5.svg

<svg viewBox="0 0 128 128" xmlns="http://www.w3.org/2000/svg">
  <path d="M69.09,4.24c-1.08,0.96-9.48,17.63-9.48,17.63l-6.25,25.21l24.32-2.23c0,0,20.23-37.62,20.64-38.49 c0.73-1.58,1.12-2.23-1.67-2.23C93.86,4.12,70.1,3.34,69.09,4.24z" fill="#176CC7"/>
  <path d="M81.68,43.29c-1.21-0.65-36.85-1.21-37.69,0c-0.76,1.1-0.33,6.87-0.04,7.56 c0.52,1.2,11.97,5.85,11.97,5.85v2.89c0,0,0.78,0.32,7.46,0.32s8.01-0.34,8.01-0.34l0.05-2.78c0,0,9.94-5.12,10.46-5.83 C82.36,50.37,82.89,43.94,81.68,43.29z M71.34,52.43c0,0,0.14-1.38-0.55-1.72c-0.69-0.35-12.62-0.29-13.56-0.24 c-0.94,0.05-0.94,1.73-0.94,1.73l-7.47-3.95l-0.13-1.32l27.94,0.15l0.06,1.78L71.34,52.43z" fill="#FCC11A"/>
  <path d="M59.04,51.84c-0.94,0-1.65,1.06-1.65,2.74c0,1.58,0.54,2.88,1.73,2.81c1.13-0.06,1.67-1.49,1.59-2.83 C60.61,52.99,60.23,51.84,59.04,51.84z" fill="#FDFFFF"/>
  <path d="M29.31,92.09c0,23.96,21.71,33.93,36.12,33.5c16.79-0.5,34.85-13.24,33.36-36.1 C97.39,68.04,79.1,57.8,63.32,57.92C44.98,58.05,29.31,71.16,29.31,92.09z" fill="#F8932A"/>
  <path d="M64.52,121.29c-0.25,0-0.51,0-0.76-0.01c-7.5-0.25-15.12-3.08-20.54-8.33 c-5.8-5.62-9.38-12.73-9.4-20.9c-0.05-21.46,18.34-29.35,30.17-29.35c0.03,0,0.07,0,0.1,0h0c16.03,0.07,29.88,12.05,30.24,28.94 c0.16,7.52-2.92,15.48-8.96,21.42C79.74,118.59,71.43,121.29,64.52,121.29z" fill="#FCC11A"/>
  <path d="M25.51,3.72C24.88,4.3,48.97,47.2,48.97,47.2s4.04,0.52,13.06,0.6s13.49-0.52,13.49-0.52 S56.79,4.15,55.67,3.72C55.12,3.5,47.7,3.42,40.45,3.34C33.19,3.25,26.11,3.16,25.51,3.72z" fill="#2E9DF4"/>
  <path d="M52.29,67.35c-1.46-1.25-8.89,2.52-14.11,11.15c-3.5,5.79-3.8,13.2-1.57,13.32 c2.23,0.12,2.2-7.21,7.05-13.62C49.52,70.49,54.4,69.16,52.29,67.35z" fill="#FEFFFA"/>
  <path d="M64.37,66.9c-1.95,0-4.99,12.89-7.38,14.48s-14.77,0.07-14.91,1.81c-0.14,1.74,9.19,8.98,10.28,11.65 s-4.71,14.62-3.11,15.78c1.59,1.16,11.58-7.17,14.91-7.17c3.47,0,12.41,8.89,13.9,7.67c1.57-1.28-3.47-12.96-2.68-15.64 c0.8-2.68,11.65-8.4,11.22-11c-0.43-2.61-13.03-0.65-15.35-2.82S66.47,66.9,64.37,66.9z" fill="#F8932A"/>
</svg>

<svg viewBox="0 0 128 128" xmlns="http://www.w3.org/2000/svg">
  <defs/>
  <path d="M69.09,4.24 C68.01,5.2 59.61,21.87 59.61,21.87 L53.36,47.08 L77.68,44.85 C77.68,44.85 97.91,7.23 98.32,6.36 C99.05,4.78 99.44,4.13 96.65,4.13 C93.86,4.12 70.1,3.34 69.09,4.24 Z" fill="#176CC7"/>
  <path d="M81.68,43.29 C80.47,42.64 44.83,42.08 43.99,43.29 C43.23,44.39 43.66,50.16 43.95,50.85 C44.47,52.05 55.92,56.7 55.92,56.7 L55.92,59.59 C55.92,59.59 56.7,59.91 63.38,59.91 C70.06,59.91 71.39,59.57 71.39,59.57 L71.44,56.79 C71.44,56.79 81.38,51.67 81.9,50.96 C82.36,50.37 82.89,43.94 81.68,43.29 Z M71.34,52.43 C71.34,52.43 71.48,51.05 70.79,50.71 C70.1,50.36 58.17,50.42 57.23,50.47 C56.29,50.52 56.29,52.2 56.29,52.2 L48.82,48.25 L48.69,46.93 L76.63,47.08 L76.69,48.86 L71.34,52.43 Z" fill="#FCC11A"/>
  <path d="M59.04,51.84 C58.1,51.84 57.39,52.9 57.39,54.58 C57.39,56.16 57.93,57.46 59.12,57.39 C60.25,57.33 60.79,55.9 60.71,54.56 C60.61,52.99 60.23,51.84 59.04,51.84 Z" fill="#FDFFFF"/>
  <path d="M29.31,92.09 C29.31,116.05 51.02,126.02 65.43,125.59 C82.22,125.09 100.28,112.35 98.79,89.49 C97.39,68.04 79.1,57.8 63.32,57.92 C44.98,58.05 29.31,71.16 29.31,92.09 Z" fill="#F8932A"/>
  <path d="M64.52,121.29 C64.27,121.29 64.01,121.29 63.76,121.28 C56.26,121.03 48.64,118.2 43.22,112.95 C37.42,107.33 33.84,100.22 33.82,92.05 C33.77,70.59 52.16,62.7 63.99,62.7 C64.02,62.7 64.06,62.7 64.09,62.7 L64.09,62.7 C80.12,62.77 93.97,74.75 94.33,91.64 C94.49,99.16 91.41,107.12 85.37,113.06 C79.74,118.59 71.43,121.29 64.52,121.29 Z" fill="#FCC11A"/>
  <path d="M25.51,3.72 C24.88,4.3 48.97,47.2 48.97,47.2 C48.97,47.2 53.01,47.72 62.03,47.8 C71.05,47.88 75.52,47.28 75.52,47.28 C75.52,47.28 56.79,4.15 55.67,3.72 C55.12,3.5 47.7,3.42 40.45,3.34 C33.19,3.25 26.11,3.16 25.51,3.72 Z" fill="#2E9DF4"/>
  <path d="M52.29,67.35 C50.83,66.1 43.4,69.87 38.18,78.5 C34.68,84.29 34.38,91.7 36.61,91.82 C38.84,91.94 38.81,84.61 43.66,78.2 C49.52,70.49 54.4,69.16 52.29,67.35 Z" fill="#FEFFFA"/>
  <path d="M64.37,66.9 C62.42,66.9 59.38,79.79 56.99,81.38 C54.6,82.97 42.22,81.45 42.08,83.19 C41.94,84.93 51.27,92.17 52.36,94.84 C53.45,97.51 47.65,109.46 49.25,110.62 C50.84,111.78 60.83,103.45 64.16,103.45 C67.63,103.45 76.57,112.34 78.06,111.12 C79.63,109.84 74.59,98.16 75.38,95.48 C76.18,92.8 87.03,87.08 86.6,84.48 C86.17,81.87 73.57,83.83 71.25,81.66 C68.93,79.49 66.47,66.9 64.37,66.9 Z" fill="#F8932A"/>
</svg>
